frontend/public/svg/weather/tornado.svg

<svg width="102" height="150" viewBox="0 0 102 150" fill="none" xmlns="http://www.w3.org/2000/svg">
<g clip-path="url(#clip0)">
<path d="M45.9648 35.7559C36.9625 35.8623 27.9831 34.8294 19.2402 32.6812C14.6419 31.4998 10.2652 29.7273 6.5996 26.5992C-1.26332 19.8914 -0.79403 9.61036 7.611 3.63702C9.3037 2.43395 11.1332 1.60194 13.2742 2.1782C15.3883 2.74856 15.8153 4.42661 14.1994 5.906C12.8001 7.18651 11.1054 8.18853 9.87871 9.60622C5.84225 14.2708 6.57494 19.0176 11.7568 22.401C15.784 25.0264 20.3547 26.2415 25.0107 27.0652C34.7694 28.6957 44.6973 29.0628 54.5498 28.1574C62.2814 27.53 70.0006 26.7272 77.4429 24.4937C80.9772 23.4443 84.3685 21.96 87.5367 20.0743C88.239 19.6991 88.8585 19.1867 89.3587 18.5674C89.8588 17.9482 90.229 17.2348 90.4482 16.4695C90.6674 15.7044 90.7311 14.9029 90.6346 14.1128C90.5381 13.3227 90.2834 12.5601 89.887 11.8701C89.3016 10.9272 88.5474 10.1007 87.6614 9.4319C86.3789 8.35222 84.9586 7.43737 83.6446 6.39248C82.1173 5.1776 82.1521 4.05268 83.8303 2.94479C84.8562 2.24631 86.033 1.80236 87.2643 1.64942C88.4956 1.49647 89.7459 1.63903 90.9109 2.0654C98.5165 4.5818 101.865 11.9522 98.7121 19.3321C96.9958 23.3509 93.9071 26.041 90.1049 27.9805C84.4374 30.8723 78.2823 32.1851 72.095 33.3074C68.5639 33.948 64.9926 34.4378 61.4182 34.7509C56.2771 35.2025 51.1164 35.4317 45.9648 35.7559Z" fill="black"/>
<path d="M43.0706 52.9366C40.4945 52.7594 36.9008 52.651 33.3454 52.2027C31.804 51.9685 30.3387 51.3764 29.0667 50.4747C27.053 49.0695 27.159 47.2686 29.2199 45.8746C30.1425 45.2466 31.1985 44.8423 32.3045 44.6933C34.862 44.3866 37.4355 44.231 40.0113 44.2273C51.9337 44.2897 63.7621 43.4581 75.4025 40.7271C82.9445 38.955 90.3821 36.8778 97.1575 32.9529C97.4476 32.7849 97.7606 32.6553 98.0593 32.5017C99.1875 31.9228 100.488 31.8871 101.025 33.0016C101.23 33.492 101.325 34.0206 101.303 34.5515C101.281 35.0823 101.144 35.6023 100.9 36.0744C100.037 37.3864 98.883 38.4822 97.5289 39.2772C93.9795 41.4061 90.2882 43.2883 86.4815 44.9106C72.8769 50.2657 58.6429 52.5002 43.0706 52.9366Z" fill="black"/>
<path d="M50.5572 79.5493C43.8527 79.0669 37.1444 78.6357 30.4485 78.0614C29.0058 77.8638 27.5989 77.4595 26.2714 76.8616C25.6131 76.6568 25.0623 76.2013 24.7392 75.5922C24.4161 74.9832 24.3468 74.271 24.5466 73.6108C24.947 71.9476 26.2532 71.7074 27.7135 71.8603C31.0609 72.2121 34.408 72.8967 37.7448 72.8612C45.0302 72.7844 52.3157 72.3657 59.601 72.0441C67.9142 71.6772 76.0974 70.333 84.2498 68.7381C87.2841 68.1474 89.1205 68.912 89.6318 70.7491C90.1332 72.5449 88.879 74.0689 85.8972 75.1203C78.8291 77.6144 71.4315 78.2005 64.041 78.6226C59.5687 78.8772 55.0708 78.6692 50.5861 78.6692L50.5572 79.5493Z" fill="black"/>
<path d="M55.1135 66.4667C40.8119 65.4665 27.1293 64.7312 13.8581 60.9776C11.6161 60.2771 9.42514 59.4236 7.30019 58.4228C6.38959 57.9862 5.5511 57.4131 4.81392 56.7229C2.89151 55.0197 2.35077 53.0659 3.32018 51.7126C4.17998 50.5115 5.66903 50.8898 8.1546 51.9491C11.5265 53.4315 15.0256 54.6067 18.6089 55.4596C28.6003 57.7095 38.824 58.1277 48.9972 58.9003C52.1279 59.1379 55.2547 59.4392 58.3769 59.7739C59.269 59.8835 60.145 60.0987 60.9866 60.4142C62.3767 60.9157 63.2412 61.8876 63.1447 63.4543C63.1339 64.0852 62.8898 64.6899 62.4595 65.1515C62.0292 65.6131 61.4431 65.8984 60.8145 65.9533C58.7234 66.2579 56.5968 66.3414 55.1135 66.4667Z" fill="black"/>
<path d="M48.2509 105.069C47.0879 105.016 45.0704 104.973 43.062 104.813C42.0595 104.728 41.0698 104.53 40.1117 104.223C38.6678 103.763 37.2863 103.029 37.4549 101.242C37.6197 99.497 39.0769 98.945 40.5674 98.7048C41.5685 98.5774 42.5777 98.5295 43.5863 98.5604C52.4502 98.5486 61.2759 98.183 69.9641 96.1634C71.5327 95.7985 73.4269 95.2505 74.3582 97.3409C74.9949 98.7678 73.9927 100.221 71.4815 101.222C64.3036 104.08 56.78 105.047 48.2509 105.069Z" fill="black"/>
<path d="M43.1567 91.2048C36.9254 90.5609 30.6862 89.9768 24.4674 89.2358C22.8101 88.9752 21.1916 88.5099 19.6487 87.8509C18.6938 87.53 17.8534 86.9373 17.2307 86.1451C16.9901 85.746 16.8374 85.2997 16.783 84.837C16.7287 84.3749 16.774 83.9063 16.9157 83.4626C17.1363 82.9527 18.5387 82.4932 19.193 82.7019C29.34 85.9292 39.8337 84.8403 50.1979 85.3365C51.4242 85.324 52.6441 85.5157 53.8078 85.9022C54.5888 86.2206 55.6664 87.2563 55.6021 87.864C55.5033 88.3727 55.296 88.8538 54.9945 89.2752C54.693 89.6965 54.3044 90.0483 53.8549 90.3056C52.8153 90.8248 51.4665 90.8208 50.245 90.8602C47.8947 90.9357 45.5398 90.8819 43.1862 90.8819L43.1567 91.2048Z" fill="black"/>
<path d="M48.2805 115.047C41.515 114.462 35.5724 114.021 30.0172 111.641C28.7585 111.195 27.615 110.474 26.6698 109.531C26.3758 109.092 26.1838 108.593 26.108 108.07C26.0321 107.548 26.0742 107.015 26.2314 106.511C26.4604 105.906 27.8302 105.696 28.7195 105.396C29.0564 105.346 29.4004 105.402 29.7041 105.556C36.314 108.12 43.3107 108.145 50.2258 108.716C51.1053 108.788 52.1948 108.775 52.7855 109.275C53.6087 109.951 54.1474 110.912 54.2949 111.966C54.233 112.44 54.056 112.89 53.7793 113.28C53.5026 113.669 53.1348 113.984 52.7079 114.198C51.2617 114.618 49.7796 114.902 48.2805 115.047Z" fill="black"/>
<path d="M49.2698 126.188C47.8068 126.092 45.8917 126.052 44.0034 125.807C43.0071 125.675 42.0472 125.344 41.181 124.835C38.8838 123.457 38.884 121.77 41.336 120.673C42.999 120.035 44.7501 119.657 46.5281 119.552C52.5382 118.908 58.5614 118.384 64.5774 117.795C65.8165 117.674 67.1373 117.348 67.7412 118.878C68.2899 120.274 67.4878 121.263 66.4592 122.048C63.209 124.532 59.3229 125.209 55.4262 125.757C53.5418 126.022 51.6208 126.032 49.2698 126.188Z" fill="black"/>
<path d="M52.6977 141.94C50.6381 141.513 49.2039 141.487 48.0704 140.89C47.2401 140.453 46.3174 139.259 46.3292 138.415C46.341 137.571 47.3538 136.164 48.1223 136.016C51.409 135.403 54.7329 135.008 58.0718 134.835C58.5348 134.904 58.9721 135.092 59.3416 135.379C59.7111 135.667 60.0002 136.044 60.1812 136.476C60.3217 137.387 59.853 138.961 59.1592 139.329C57.0611 140.332 54.9033 141.203 52.6977 141.94Z" fill="black"/>
<path d="M18.438 48.3261C15.9899 47.7852 13.1119 47.0948 10.9558 44.9899C10.6226 44.5769 10.3783 44.0994 10.2386 43.5875C10.0988 43.0756 10.0668 42.5403 10.1441 42.0152C10.2051 41.706 10.3301 41.4131 10.5113 41.1551C10.6925 40.8971 10.9257 40.6797 11.1958 40.5174C11.466 40.3549 11.7672 40.2506 12.0801 40.2116C12.3929 40.1726 12.7102 40.1999 13.012 40.291C15.5311 40.8136 18.0098 41.5156 20.4288 42.3915C21.1388 42.622 21.7388 43.1058 22.1142 43.7509C22.4896 44.3961 22.614 45.1574 22.4635 45.8886C22.218 47.3417 20.745 48.3038 18.438 48.3261Z" fill="black"/>
<path d="M46.705 128.924C48.38 128.924 50.0565 128.882 51.7295 128.937C53.054 128.981 54.1893 129.415 54.3048 130.987C54.4183 132.528 53.311 133.159 52.1053 133.541C51.3547 133.762 50.569 133.838 49.7899 133.765C47.3457 133.565 44.9035 133.314 42.4731 132.991C41.6891 132.938 40.9368 132.66 40.307 132.19C39.6983 131.617 39.3264 130.836 39.2642 130.003C39.2642 129.621 40.3695 128.963 41.0127 128.912C42.899 128.765 44.8043 128.86 46.7024 128.86L46.705 128.924Z" fill="black"/>
<path d="M75.7586 63.5931C74.3297 63.3831 73.5336 63.4825 73.0374 63.1432C72.2859 62.6306 71.4018 61.89 71.2213 61.0985C71.2174 60.6785 71.3217 60.2646 71.5239 59.8967C71.7267 59.5288 72.0207 59.2192 72.3778 58.9981C74.8988 58.1204 77.4926 57.4679 80.1285 57.0477C80.8839 56.9368 82.148 57.9178 82.6074 58.7238C82.7584 58.9998 82.8477 59.3053 82.8687 59.6192C82.889 59.9331 82.8411 60.2479 82.7282 60.5415C82.6153 60.8351 82.4394 61.1008 82.2136 61.3197C81.9879 61.5384 81.7168 61.7052 81.4195 61.8087C79.564 62.4985 77.6744 63.0939 75.7586 63.5931Z" fill="black"/>
<path d="M48.3518 143.301C49.8358 143.63 51.9183 144.048 53.9746 144.566C55.2151 144.878 56.0552 145.868 55.6581 147.041C55.4775 147.534 55.1958 147.983 54.8306 148.36C54.4655 148.738 54.025 149.035 53.5381 149.231C51.0519 149.909 48.6812 149.035 46.4312 147.946C45.2098 147.355 44.5063 146.393 44.826 144.963C45.0931 143.767 46.0303 143.257 48.3518 143.301Z" fill="black"/>
<path d="M66.4123 90.3612C64.759 90.2345 63.7901 90.3612 62.9992 90.0415C62.2635 89.7468 61.2463 89.0163 61.201 88.4145C61.1406 87.6059 61.7358 86.156 62.3278 85.9932C64.7808 85.3192 67.2943 84.8906 69.8317 84.7121C70.4617 84.6687 71.6727 85.8804 71.735 86.5944C71.8164 87.4956 71.2369 88.9671 70.5143 89.3228C69.069 90.0343 67.331 90.1544 66.4123 90.3612Z" fill="black"/>
<path d="M62.2149 113.815C60.2636 113.779 59.0861 112.873 59.1505 111.457C59.2161 110.013 60.9823 108.846 62.9802 108.976C64.4313 109.069 65.6901 109.535 65.8423 111.222C65.9854 112.804 64.4478 113.854 62.2149 113.815Z" fill="black"/>
<path d="M30.8179 102.171C28.8916 102.059 27.3144 100.678 27.4292 99.2031C27.5264 98.5382 27.8665 97.9331 28.3839 97.5045C28.9013 97.0759 29.5593 96.8541 30.2305 96.8823C32.1168 96.9033 34.0136 98.5894 33.734 100.112C33.4471 101.674 32.3472 102.273 30.8179 102.171Z" fill="black"/>
</g>
<defs>
<clipPath id="clip0">
<rect width="100.42" height="148.989" fill="white" transform="translate(0.892578 0.963867)"/>
</clipPath>
</defs>
</svg>

<svg xmlns="http://www.w3.org/2000/svg" width="102" height="150" fill="none" viewBox="0 0 102 150"><g fill="#000" clip-path="url(#a)"><path d="M45.965 35.756A106.7 106.7 0 0 1 19.24 32.68c-4.598-1.18-8.975-2.953-12.64-6.08C-1.263 19.891-.794 9.61 7.61 3.637c1.693-1.203 3.522-2.035 5.663-1.459 2.114.57 2.541 2.249.925 3.728-1.399 1.28-3.094 2.283-4.32 3.7-4.037 4.665-3.304 9.412 1.878 12.795 4.027 2.625 8.598 3.84 13.254 4.664a115.3 115.3 0 0 0 29.539 1.092c7.731-.627 15.45-1.43 22.893-3.663a44.5 44.5 0 0 0 10.094-4.42 5.94 5.94 0 0 0 2.35-8.204 9 9 0 0 0-2.226-2.438c-1.282-1.08-2.702-1.995-4.016-3.04-1.528-1.214-1.493-2.34.185-3.447a7.81 7.81 0 0 1 7.08-.88c7.606 2.517 10.955 9.887 7.802 17.267-1.716 4.019-4.805 6.709-8.607 8.648-5.668 2.892-11.823 4.205-18.01 5.327-3.531.641-7.102 1.13-10.677 1.444-5.14.452-10.302.68-15.453 1.005M43.07 52.937c-2.575-.178-6.17-.286-9.725-.734a10 10 0 0 1-4.278-1.728c-2.014-1.406-1.908-3.206.153-4.6a7.2 7.2 0 0 1 3.084-1.182 66 66 0 0 1 7.707-.466c11.923.063 23.751-.769 35.392-3.5 7.541-1.772 14.98-3.85 21.754-7.774.29-.168.604-.298.902-.451 1.129-.58 2.429-.615 2.966.5a3.63 3.63 0 0 1-.125 3.072 10.24 10.24 0 0 1-3.371 3.203 90 90 0 0 1-11.047 5.634c-13.605 5.355-27.84 7.59-43.411 8.026m7.486 26.613c-6.704-.483-13.413-.914-20.109-1.489a15.2 15.2 0 0 1-4.177-1.2 2.61 2.61 0 0 1-1.724-3.25c.4-1.663 1.706-1.904 3.166-1.75 3.348.351 6.695 1.036 10.032 1 7.285-.077 14.57-.495 21.856-.817 8.313-.367 16.496-1.711 24.649-3.306 3.034-.59 4.87.174 5.382 2.011.501 1.796-.753 3.32-3.735 4.371-7.068 2.494-14.466 3.08-21.856 3.503-4.472.254-8.97.046-13.455.046zm4.557-13.083c-14.302-1-27.985-1.736-41.256-5.49A51 51 0 0 1 7.3 58.424a9.9 9.9 0 0 1-2.486-1.7c-1.922-1.703-2.463-3.657-1.494-5.01.86-1.202 2.349-.823 4.835.236a61 61 0 0 0 10.454 3.51c9.991 2.25 20.215 2.669 30.388 3.441 3.13.238 6.258.54 9.38.874.892.11 1.768.325 2.61.64 1.39.502 2.254 1.474 2.158 3.04a2.553 2.553 0 0 1-2.33 2.5c-2.092.304-4.218.387-5.701.513m-6.864 38.601c-1.162-.053-3.18-.096-5.188-.256a13.4 13.4 0 0 1-2.95-.59c-1.444-.46-2.826-1.194-2.657-2.981.165-1.745 1.622-2.297 3.112-2.537a19 19 0 0 1 3.02-.145c8.863-.011 17.689-.377 26.377-2.397 1.569-.364 3.463-.912 4.394 1.178.637 1.427-.365 2.88-2.877 3.881-7.177 2.858-14.701 3.825-23.23 3.847m-5.094-13.864c-6.232-.644-12.47-1.228-18.69-1.97a20.3 20.3 0 0 1-4.818-1.384 5.17 5.17 0 0 1-2.418-1.706 3.28 3.28 0 0 1-.315-2.682c.22-.51 1.623-.97 2.277-.761 10.147 3.227 20.64 2.138 31.005 2.635a11.1 11.1 0 0 1 3.61.565c.78.319 1.858 1.354 1.794 1.962a3.6 3.6 0 0 1-1.747 2.442c-1.04.519-2.388.515-3.61.554-2.35.076-4.705.022-7.059.022zm5.123 23.842c-6.765-.585-12.708-1.026-18.263-3.406a9 9 0 0 1-3.347-2.11 3.54 3.54 0 0 1-.439-3.02c.23-.605 1.6-.815 2.488-1.115.337-.05.681.006.985.16 6.61 2.564 13.607 2.589 20.522 3.16.88.072 1.969.059 2.56.559a4.24 4.24 0 0 1 1.509 2.691 2.92 2.92 0 0 1-1.587 2.232c-1.446.42-2.928.704-4.427.849m.989 11.141c-1.463-.096-3.378-.136-5.267-.381a7.5 7.5 0 0 1-2.822-.972c-2.297-1.378-2.297-3.065.155-4.162a17.4 17.4 0 0 1 5.192-1.121c6.01-.644 12.033-1.168 18.05-1.757 1.239-.121 2.56-.447 3.163 1.083.549 1.396-.253 2.385-1.282 3.17-3.25 2.484-7.136 3.161-11.033 3.709-1.884.265-3.805.275-6.156.431m3.428 15.752c-2.06-.427-3.494-.453-4.628-1.05-.83-.437-1.753-1.631-1.74-2.475.011-.844 1.024-2.251 1.792-2.399a76 76 0 0 1 9.95-1.181 2.73 2.73 0 0 1 2.11 1.641c.14.911-.329 2.485-1.023 2.853a57 57 0 0 1-6.461 2.611m-34.26-93.614c-2.448-.54-5.326-1.231-7.482-3.336a3.85 3.85 0 0 1-.812-2.975 2.256 2.256 0 0 1 2.868-1.724 54 54 0 0 1 7.417 2.1 3.033 3.033 0 0 1 2.035 3.498c-.246 1.453-1.719 2.415-4.026 2.437m28.267 80.598c1.675 0 3.352-.042 5.025.013 1.324.044 2.46.478 2.575 2.05.113 1.541-.994 2.172-2.2 2.554a6.2 6.2 0 0 1-2.315.224c-2.444-.2-4.886-.451-7.317-.774a4.1 4.1 0 0 1-2.166-.801 3.35 3.35 0 0 1-1.043-2.187c0-.382 1.105-1.04 1.749-1.091 1.886-.147 3.791-.052 5.69-.052zm29.054-65.331c-1.43-.21-2.225-.11-2.722-.45-.751-.512-1.635-1.253-1.816-2.044a2.45 2.45 0 0 1 1.157-2.1 45 45 0 0 1 7.75-1.951c.756-.111 2.02.87 2.48 1.676a2.167 2.167 0 0 1-1.189 3.085 59 59 0 0 1-5.66 1.784m-27.407 79.708c1.484.329 3.566.747 5.623 1.265 1.24.312 2.08 1.302 1.683 2.475a3.75 3.75 0 0 1-2.12 2.19c-2.486.678-4.857-.196-7.107-1.285-1.221-.591-1.925-1.553-1.605-2.983.267-1.196 1.204-1.706 3.526-1.662m18.06-52.94c-1.653-.127-2.622 0-3.413-.32-.736-.294-1.753-1.025-1.798-1.626-.06-.81.535-2.259 1.127-2.422a38.5 38.5 0 0 1 7.504-1.28c.63-.044 1.84 1.167 1.903 1.881.081.902-.498 2.373-1.22 2.729-1.446.711-3.184.831-4.103 1.038m-4.197 23.454c-1.951-.036-3.129-.942-3.065-2.358.066-1.444 1.832-2.611 3.83-2.481 1.451.093 2.71.559 2.862 2.246.143 1.582-1.394 2.632-3.627 2.593m-31.397-11.644c-1.926-.112-3.504-1.493-3.389-2.968a2.716 2.716 0 0 1 2.802-2.32c1.886.02 3.783 1.706 3.503 3.229-.287 1.562-1.387 2.161-2.916 2.059"/></g><defs><clipPath id="a"><path fill="#fff" d="M.893.964h100.42v148.989H.893z"/></clipPath></defs></svg>
